X: 041196
T: Docks and Quays of Galway
T: Docks and Piers of Galway
S: Mike Connolly (Boston)
Z: Paul Mulvaney (Boston)
M: 4/4
L: 1/8
R: reel
N: Various spellings of "keys" or "quays". Alternate title
N: "Ducks and Geese of Galway" is probably bogus.
K: D
eA (3AAA eA (3AAA|e2 fd edBd|eA (3AAA eA (3AAA|d2 ed BGBd|
eA (3AAA eA (3AAA|e2 fd edBd|g4 f3 e|dfec dBAf :|
a2 fa bafb|afef edBA|a2 fa bafb|afed B2 A2|a2 fa bafb|
afef edBA|g4 f3 e|dfec dBAF :|
